src/app/assets/login_logo.svg

<svg fill="none" height="43" viewBox="0 0 200 43" width="200" xmlns="http://www.w3.org/2000/svg" xmlns:xlink="http://www.w3.org/1999/xlink"><clipPath id="a"><path d="m0 0h200v42.6667h-200z"/></clipPath><g clip-path="url(#a)"><path d="m99.5154 17.0227c1.0016 0 1.9946.2687 2.8656.7653l3.883 2.2387c.733-.6024 1.173-1.4979 1.173-2.4667v-5.4626c0-1.1397-.611-2.18987-1.596-2.76788l-4.73-2.72721c-.497-.28494-1.042-.43147-1.5956-.43147s-1.099.14653-1.5956.43147l-4.7299 2.72721c-.9851.56987-1.5957 1.62008-1.5957 2.76788v5.4626c0 .9688.4396 1.8643 1.1723 2.4667l3.8833-2.2387c.8711-.5048 1.8561-.7653 2.8656-.7653z" fill="#f78f22"/><path d="m.056987.0570068h10.917113v30.9111932c0 3.061 2.1736 3.004 4.1193 3.004h15.3702v8.6864h-19.8803c-5.62543 0-10.5833-2.0597-10.5833-8.6294z" fill="#f78f22"/><path d="m35.5923.0570068h10.9171v42.6096932h-10.9171z" fill="#f78f22"/><g fill="#1e293a"><path d="m158.839.0570068h-10.917v42.6096932h10.917z"/><path d="m163.187.0570068v8.6863832h12.756v33.92331h10.918v-33.92331h13.139v-8.6863832z"/><path d="m107.363 24.8299s-.008-.0652-.016-.0977c-.049-.2036-.122-.4071-.212-.5943-.008-.0244-.024-.0407-.032-.0652-.277-.5617-.708-1.0339-1.262-1.3595l-4.73-2.7272c-.985-.5699-2.2061-.5699-3.1912 0l-4.7299 2.7272c-.5536.3175-.9851.7978-1.2619 1.3595-.0081.0245-.0244.0408-.0325.0652-.0896.1872-.1547.3907-.2117.5943 0 .0325-.0163.0651-.0163.0977-.0407.2116-.0733.4314-.0733.6512v5.4626c0 1.1397.6106 2.1899 1.5957 2.7679l4.7299 2.7272c.2442.1466.5047.2524.7734.3175.5373.1466 1.099.1466 1.6368 0 .268-.0732.529-.1791.773-.3175l4.73-2.7272c.985-.5698 1.595-1.62 1.595-2.7679v-5.4626c0-.2198-.032-.4396-.073-.6512z"/><path d="m135.336 20.5559c4.787-.5536 6.855-5.2347 6.855-9.0202 0-6.62672-3.957-11.4705755-14.149-11.4705755h-20.605v7.2861355c.049.03257.09.07327.138.10584.098.06512.188.13839.277.21166.09.07327.171.14654.253.21981.105.09769.211.19538.309.30121.024.02443.049.05699.073.08955.936 1.04204 1.49 2.39347 1.49 3.82627v5.4625c0 1.4817-.586 2.8901-1.587 3.9403.488.521.887 1.1397 1.156 1.8072.016.0489.032.0896.048.1384.041.114.082.228.122.342.033.1139.066.2198.09.3337.008.0407.024.0815.033.1222.089.3989.138.8059.138 1.2292v5.4626c0 1.905-.969 3.6879-2.54 4.738v6.9361h20.833c10.249 0 14.873-4.1193 14.873-12.7568.057-4.9009-3.346-8.6294-7.799-9.3051zm-16.933-12.25215h8.914c1.946 0 4.177.83852 4.177 4.17635 0 2.3934-1.449 4.0134-4.177 4.0134h-8.914v-8.19789zm9.411 26.12425h-9.411v-10.1354h9.411c3.346 0 4.453 2.5074 4.453 5.1776 0 3.6797-1.783 4.9578-4.453 4.9578z"/></g><path d="m89.0623 30.9356v-5.4626c0-1.4898.5943-2.9063 1.5957-3.9565-1.0095-1.0502-1.5957-2.4667-1.5957-3.9565v-5.4626c0-1.9049.9688-3.67967 2.5319-4.73799v-7.35941h-10.9497v25.009l-16.9251-25.009h-11.0881v42.6097h10.9741v-24.5612l16.9903 24.5612h10.9985v-6.9361c-1.5631-1.0583-2.5319-2.833-2.5319-4.738z" fill="#f78f22"/></g></svg>

<svg width="200" height="43" viewBox="0 0 200 43" fill="none" xmlns="http://www.w3.org/2000/svg">
<g clip-path="url(#clip0_11_3394)">
<path d="M99.5154 17.0227C100.517 17.0227 101.51 17.2914 102.381 17.788L106.264 20.0267C106.997 19.4243 107.437 18.5288 107.437 17.56V12.0974C107.437 10.9577 106.826 9.90753 105.841 9.32952L101.111 6.60231C100.614 6.31737 100.069 6.17084 99.5154 6.17084C98.9618 6.17084 98.4164 6.31737 97.9198 6.60231L93.1899 9.32952C92.2048 9.89939 91.5942 10.9496 91.5942 12.0974V17.56C91.5942 18.5288 92.0338 19.4243 92.7665 20.0267L96.6498 17.788C97.5209 17.2832 98.5059 17.0227 99.5154 17.0227Z" fill="#F78F22"/>
<path d="M0.056987 0.0570068H10.9741V30.9682C10.9741 34.0292 13.1477 33.9722 15.0934 33.9722H30.4636V42.6586H10.5833C4.95787 42.6586 0 40.5989 0 34.0292L0.056987 0.0570068Z" fill="#F78F22"/>
<path d="M35.5923 0.0570068H46.5094V42.6667H35.5923V0.0570068Z" fill="#F78F22"/>
<path d="M158.839 0.0570068H147.922V42.6667H158.839V0.0570068Z" fill="#1E293A"/>
<path d="M163.187 0.0570068V8.74339H175.943V42.6667H186.861V8.74339H200V0.0570068H163.187Z" fill="#1E293A"/>
<path d="M107.363 24.8299C107.363 24.8299 107.355 24.7647 107.347 24.7322C107.298 24.5286 107.225 24.3251 107.135 24.1379C107.127 24.1135 107.111 24.0972 107.103 24.0727C106.826 23.511 106.395 23.0388 105.841 22.7132L101.111 19.986C100.126 19.4161 98.9049 19.4161 97.9198 19.986L93.1899 22.7132C92.6363 23.0307 92.2048 23.511 91.928 24.0727C91.9199 24.0972 91.9036 24.1135 91.8955 24.1379C91.8059 24.3251 91.7408 24.5286 91.6838 24.7322C91.6838 24.7647 91.6675 24.7973 91.6675 24.8299C91.6268 25.0415 91.5942 25.2613 91.5942 25.4811V30.9437C91.5942 32.0834 92.2048 33.1336 93.1899 33.7116L97.9198 36.4388C98.164 36.5854 98.4245 36.6912 98.6932 36.7563C99.2305 36.9029 99.7922 36.9029 100.33 36.7563C100.598 36.6831 100.859 36.5772 101.103 36.4388L105.833 33.7116C106.818 33.1418 107.428 32.0916 107.428 30.9437V25.4811C107.428 25.2613 107.396 25.0415 107.355 24.8299H107.363Z" fill="#1E293A"/>
<path d="M135.336 20.5559C140.123 20.0023 142.191 15.3212 142.191 11.5357C142.191 4.90898 138.234 0.0651245 128.042 0.0651245H107.437V7.35126C107.486 7.38383 107.527 7.42453 107.575 7.4571C107.673 7.52222 107.763 7.59549 107.852 7.66876C107.942 7.74203 108.023 7.8153 108.105 7.88857C108.21 7.98626 108.316 8.08395 108.414 8.18978C108.438 8.21421 108.463 8.24677 108.487 8.27933C109.423 9.32137 109.977 10.6728 109.977 12.1056V17.5681C109.977 19.0498 109.391 20.4582 108.39 21.5084C108.878 22.0294 109.277 22.6481 109.546 23.3156C109.562 23.3645 109.578 23.4052 109.594 23.454C109.635 23.568 109.676 23.682 109.716 23.796C109.749 23.9099 109.782 24.0158 109.806 24.1297C109.814 24.1704 109.83 24.2112 109.839 24.2519C109.928 24.6508 109.977 25.0578 109.977 25.4811V30.9437C109.977 32.8487 109.008 34.6316 107.437 35.6817V42.6178H128.27C138.519 42.6178 143.143 38.4985 143.143 29.861C143.2 24.9601 139.797 21.2316 135.344 20.5559H135.336ZM118.403 8.30375H127.317C129.263 8.30375 131.494 9.14227 131.494 12.4801C131.494 14.8735 130.045 16.4935 127.317 16.4935H118.403V8.29561V8.30375ZM127.814 34.428H118.403V24.2926H127.814C131.16 24.2926 132.267 26.8 132.267 29.4702C132.267 33.1499 130.484 34.428 127.814 34.428Z" fill="#1E293A"/>
<path d="M89.0623 30.9356V25.473C89.0623 23.9832 89.6566 22.5667 90.658 21.5165C89.6485 20.4663 89.0623 19.0498 89.0623 17.56V12.0974C89.0623 10.1925 90.0311 8.41773 91.5942 7.35941V0H80.6445V25.009L63.7194 0H52.6313V42.6097H63.6054V18.0485L80.5957 42.6097H91.5942V35.6736C90.0311 34.6153 89.0623 32.8406 89.0623 30.9356Z" fill="#F78F22"/>
</g>
<defs>
<clipPath id="clip0_11_3394">
<rect width="200" height="42.6667" fill="white"/>
</clipPath>
</defs>
</svg>
